icons/psychology.svg

<svg width="48" height="48" viewBox="0 0 48 48" fill="none" xmlns="http://www.w3.org/2000/svg">
<path fill-rule="evenodd" clip-rule="evenodd" d="M6 9C6 7.34315 7.34315 6 9 6H39C40.6569 6 42 7.34315 42 9V39C42 40.6569 40.6569 42 39 42H9C7.34315 42 6 40.6569 6 39V9ZM9 8H39C39.5523 8 40 8.44771 40 9V39C40 39.5523 39.5523 40 39 40H25.0141V33.9998C25.0141 33.9998 25.8472 34.273 27.0141 34.4595C27.3071 34.5063 27.6212 34.5477 27.9484 34.5779C30.6654 34.8285 34.2881 34.3086 34.2881 29.7536C34.2881 29.7536 36.7302 29.3808 36.9775 28.0272C37.2248 26.6736 35.3494 24.9864 35.3494 24.9864C34.715 23.6717 34.7315 22.5601 34.7501 21.2979C34.7554 20.9405 34.7609 20.5708 34.7518 20.1812C34.7095 18.4855 34.155 16.8372 33.1546 15.4336C32.059 14.0975 30.6223 13.0507 28.9813 12.3929C26.899 11.4729 24.6305 10.9975 22.3349 11C19.3287 11 16.4456 12.1368 14.3199 14.1603C12.1942 16.1838 11 18.9282 11 21.7898C11 25.2327 13.0325 27.8888 15.6704 29.8604V40H9C8.44772 40 8 39.5523 8 39V9C8 8.44772 8.44771 8 9 8ZM26.4913 22.4691C26.3787 22.5951 26.32 22.6608 25.9665 22.6608C25.4083 22.6608 24.863 22.4969 24.402 22.1906C24.0782 22.5245 23.6814 22.783 23.2408 22.9471C22.8421 23.1384 22.6701 23.4186 22.4583 23.7637C22.4204 23.8255 22.3812 23.8894 22.3392 23.9551C22.0627 24.3884 21.9164 24.8884 21.9171 25.3985V28.2711H18.9444C18.921 28.0788 18.8912 27.8889 18.8509 27.7026L18.8462 27.6812C18.7573 27.2791 18.6185 26.8945 18.3885 26.5408C18.0479 26.0171 17.591 25.5744 17.0515 25.2452C16.5832 25.0494 16.1789 24.7326 15.8823 24.3292C15.5857 23.9258 15.4082 23.4512 15.3688 22.9567C14.8814 22.4546 14.6102 21.7898 14.6111 21.099C14.6074 20.5035 14.8083 19.9238 15.1819 19.452C15.1131 19.2186 15.08 18.9766 15.0835 18.7338C15.0825 18.1532 15.2733 17.5876 15.6276 17.1204L17.0515 16.1389C17.2699 15.6609 17.6259 15.2546 18.0764 14.9692C18.5268 14.6837 19.0526 14.5312 19.5902 14.5302C19.8122 14.5315 20.0334 14.5572 20.2495 14.6068C20.7068 14.1921 21.2942 13.9393 21.9171 13.8889L24.9424 14.0939C25.6101 14.2546 26.1938 14.6484 26.5825 15.2005H26.7793L28.5273 15.7958C29.0231 16.1824 29.3681 16.7225 29.505 17.3262C30.1049 17.5797 30.5971 18.0259 30.8993 18.5903C31.2014 19.1546 31.2953 19.8029 31.165 20.4265C31.0511 20.9722 30.7716 21.47 30.3655 21.8572C30.3075 21.9125 30.2469 21.9655 30.1838 22.0161L28.3931 22.6503C28.3491 22.6508 28.3051 22.6502 28.2612 22.6487L28.2474 22.6482C27.7346 22.6279 27.2365 22.47 26.8089 22.1906C26.6397 22.303 26.5565 22.3962 26.4913 22.4691ZM30.1388 26.1668C30.7371 26.1668 31.2222 25.6817 31.2222 25.0834C31.2222 24.5922 30.8952 24.1774 30.4471 24.0446L30.4354 24.0412C30.3411 24.0144 30.2417 24.0001 30.1388 24.0001C29.7682 24.0001 29.4411 24.1862 29.2458 24.47L29.2405 24.4777C29.1237 24.6506 29.0555 24.8591 29.0555 25.0834C29.0555 25.6817 29.5405 26.1668 30.1388 26.1668ZM21.8333 31.6812H18.9445V29.6812H21.8333V31.6812ZM18.9445 38.2869H21.8333V36.2869H18.9445V38.2869ZM21.8333 34.959H18.9445V32.959H21.8333V34.959Z" fill="black"/>
</svg>

<svg
  xmlns="http://www.w3.org/2000/svg"
  width="24"
  height="24"
  viewBox="0 0 24 24"
  fill="none"
  stroke="currentColor"
  stroke-width="2"
  stroke-linecap="round"
  stroke-linejoin="round"
>
  <path
    fill-rule="evenodd"
    d="M6 9a3 3 0 0 1 3-3h30a3 3 0 0 1 3 3v30a3 3 0 0 1-3 3H9a3 3 0 0 1-3-3zm3-1h30a1 1 0 0 1 1 1v30a1 1 0 0 1-1 1H25.014v-6s.833.273 2 .46c.293.046.607.088.934.118 2.717.25 6.34-.27 6.34-4.824 0 0 2.442-.373 2.69-1.727.247-1.353-1.629-3.04-1.629-3.04-.634-1.315-.617-2.427-.599-3.69.005-.357.01-.726.002-1.116a8.54 8.54 0 0 0-1.597-4.747 10.4 10.4 0 0 0-4.174-3.041A16.4 16.4 0 0 0 22.335 11c-3.006 0-5.89 1.137-8.015 3.16S11 18.928 11 21.79c0 3.443 2.033 6.099 4.67 8.07V40H9a1 1 0 0 1-1-1V9a1 1 0 0 1 1-1m17.491 14.47c-.112.125-.171.19-.524.19a2.83 2.83 0 0 1-1.565-.47c-.324.334-.72.593-1.161.757-.399.191-.57.472-.783.817l-.119.191a2.68 2.68 0 0 0-.422 1.444v2.872h-2.973a6 6 0 0 0-.093-.568l-.005-.022a3.4 3.4 0 0 0-.457-1.14 4.2 4.2 0 0 0-1.337-1.296 2.8 2.8 0 0 1-1.17-.916 2.7 2.7 0 0 1-.513-1.372 2.66 2.66 0 0 1-.187-3.505 2.4 2.4 0 0 1-.098-.718c-.002-.58.19-1.146.544-1.614l1.424-.981a2.73 2.73 0 0 1 1.024-1.17 2.84 2.84 0 0 1 2.174-.362 2.82 2.82 0 0 1 1.667-.718l3.025.205c.668.16 1.252.554 1.64 1.107h.197l1.748.595a2.7 2.7 0 0 1 .978 1.53c.6.254 1.092.7 1.394 1.264a2.7 2.7 0 0 1 .266 1.837 2.76 2.76 0 0 1-.981 1.59l-1.79.633-.133-.001h-.014a2.84 2.84 0 0 1-1.438-.458c-.17.112-.253.205-.318.278m3.648 3.697a1.083 1.083 0 0 0 .308-2.122l-.012-.004a1.08 1.08 0 0 0-1.19.429l-.005.008a1.083 1.083 0 0 0 .898 1.69m-8.306 5.514h-2.888v-2h2.888zm-2.888 6.606h2.888v-2h-2.888zm2.888-3.328h-2.888v-2h2.888z"
    clip-rule="evenodd"
  />
</svg>
